X: 20790
T: Johnny McGoohan's
R: reel
M: 4/4
K: Gmajor
F|:G2 Bd gdBG|D2 Bd cABA|GABd gdBd|~cB cd cABA|
GABd g2 g(g|g)edB AB cc|~cB ~BA BGAG|1 FAAc BGGF:|2 FAAc BGGA||
(B4 B) ^def|gfga gedc|BDGA BB eB|dBAG EFGA|
(B4 B) ^def|gfe^c d^def|gbag fagf|1 e=cAF G3 A:|2 e=cAF G3||

